usr/share/icons/biglinux-icons-material/32/actions/gnumeric-format-valign-center.svg

<svg xmlns="http://www.w3.org/2000/svg" viewBox="0 0 32 32"><path d="M15 3v4h-4l5 6 5-6h-4V3h-2zM4 14v1h24v-1H4zm0 2v1h24v-1H4zm12 2-5 6h4v5h2v-5h4l-5-6z" style="fill:currentColor;fill-opacity:1;stroke:none;color:#dedede"/></svg>

<svg xmlns="http://www.w3.org/2000/svg" viewBox="0 0 32 32">
  <defs
     id="defs3051">
    <style
       type="text/css"
       id="current-color-scheme">
      .ColorScheme-Text {
        color:#dedede;
      }
      </style>
  </defs>
  <path
     style="fill:currentColor;fill-opacity:1;stroke:none" 
     d="M 15 3 L 15 7 L 11 7 L 16 13 L 21 7 L 17 7 L 17 3 L 15 3 z M 4 14 L 4 15 L 28 15 L 28 14 L 4 14 z M 4 16 L 4 17 L 28 17 L 28 16 L 4 16 z M 16 18 L 11 24 L 15 24 L 15 29 L 17 29 L 17 24 L 21 24 L 16 18 z "
     class="ColorScheme-Text"
     />
</svg>
